brandFactory_export/2.Regular/Documento_Archivo ENEX_2Regular.svg

<?xml version="1.0" encoding="UTF-8"?>
<svg width="24px" height="24px" viewBox="0 0 24 24" version="1.1" xmlns="http://www.w3.org/2000/svg" xmlns:xlink="http://www.w3.org/1999/xlink">
    <title>2.Regular/Documento_Archivo ENEX_2Regular</title>
    <g id="Symbols" stroke="none" stroke-width="1" fill="none" fill-rule="evenodd">
        <g id="2.Regular/Documento_Archivo-ENEX_2Regular" fill="#5CB615" fill-rule="nonzero">
            <path d="M16.2117647,0.0302521008 C16.487395,0.0302521008 16.7462185,0.134453782 16.9445378,0.322689076 L23.3042017,6.48067227 C23.4386555,6.61176471 23.5159664,6.77310924 23.5663866,6.94453782 C23.6033613,7.03193277 23.6235294,7.12941176 23.6235294,7.2302521 L23.6235294,21.9966387 C23.6235294,22.897479 22.8504202,23.6571429 21.9327731,23.6571429 L7.31428571,23.6571429 C6.41344538,23.6571429 5.62352941,22.8806723 5.62352941,21.9966387 L5.66386555,18.6722689 L2.90420168,18.6722689 C1.30420168,18.6722689 2.19149143e-10,17.3647059 2.19149143e-10,15.7613445 L2.19149143e-10,10.8470588 C2.19149143e-10,9.24369748 1.30420168,7.93613445 2.90420168,7.93613445 L5.62352941,7.93613445 L5.62352941,1.6907563 C5.62352941,0.820168067 6.42689076,0.0302521008 7.31428571,0.0302521008 L16.2117647,0.0302521008 Z M15.1563025,1.49243697 L7.31428571,1.49243697 C7.22689076,1.49243697 7.08907563,1.62352941 7.08235294,1.69411765 L7.08235294,7.93613445 L15.1193277,7.93613445 C16.7226891,7.93613445 18.0268908,9.24369748 18.0268908,10.8470588 L18.0268908,15.7613445 C18.0268908,17.3647059 16.7226891,18.6722689 15.1193277,18.6722689 L7.11932773,18.6722689 L7.0789916,22.0067227 C7.0789916,22.0672269 7.2,22.1983193 7.31092437,22.1983193 L21.9327731,22.1983193 C22.0504202,22.1983193 22.1647059,22.0840336 22.1647059,21.9966387 L22.1647059,8.27563025 L19.3915966,8.27563025 C18.1747899,8.27563025 17.1226891,7.8789916 16.3495798,7.13277311 C15.5697479,6.37647059 15.1563025,5.34789916 15.1563025,4.15462185 L15.1563025,1.49243697 Z M15.1193277,9.39495798 L2.90420168,9.39495798 C2.10420168,9.39495798 1.45546219,10.0470588 1.45546219,10.8470588 L1.45546219,15.7613445 C1.45546219,16.5613445 2.10420168,17.2134454 2.90420168,17.2134454 L15.1193277,17.2134454 C15.9193277,17.2134454 16.5680672,16.5613445 16.5680672,15.7613445 L16.5680672,10.8470588 C16.5680672,10.0470588 15.9193277,9.39495798 15.1193277,9.39495798 Z M6.10756303,11.3815126 L7.95966387,13.8857143 L7.95966387,11.3815126 L8.74285714,11.3815126 L8.74285714,15.2907563 L8.02689076,15.2907563 L6.23193277,12.9176471 L6.23193277,15.2907563 L5.4487395,15.2907563 L5.4487395,11.3815126 L6.10756303,11.3815126 Z M4.75966387,11.3815126 L4.69243697,12.0268908 L3.01176471,12.0268908 L3.01176471,12.9747899 L4.35630252,12.9747899 L4.35630252,13.6436975 L3.01176471,13.6436975 L3.01176471,14.6420168 L4.78991597,14.6420168 L4.78991597,15.287395 L2.1210084,15.287395 L2.1210084,11.3815126 L4.75966387,11.3815126 Z M12.2319328,11.3815126 L12.1647059,12.0268908 L10.4840336,12.0268908 L10.4840336,12.9747899 L11.8285714,12.9747899 L11.8285714,13.6436975 L10.4840336,13.6436975 L10.4840336,14.6420168 L12.2621849,14.6420168 L12.2621849,15.287395 L9.59327731,15.287395 L9.59327731,11.3815126 L12.2319328,11.3815126 Z M13.6168067,11.3815126 L14.3932773,12.6722689 L15.102521,11.3815126 L16.0504202,11.3815126 L14.7697479,13.2941176 L16.0168067,15.287395 L15.0285714,15.287395 L14.2521008,13.9630252 L13.5495798,15.287395 L12.5848739,15.287395 L13.8789916,13.3411765 L12.6857143,11.3815126 L13.6168067,11.3815126 Z M16.6184874,2.03361345 L16.6184874,4.1512605 C16.6184874,4.94117647 16.8773109,5.60672269 17.3647059,6.08067227 C17.8621849,6.56134454 18.5613445,6.81344538 19.394958,6.81344538 L21.553,6.8132521 L16.6184874,2.03361345 Z" id="Documento_Archivo-ENEX_2Regular"></path>
        </g>
    </g>
</svg>

<svg width="24" height="24" viewBox="0 0 24 24" xmlns="http://www.w3.org/2000/svg"><path d="M16.212.03c.275 0 .534.104.733.293l6.36 6.158c.134.13.211.292.261.464a.735.735 0 01.058.285v14.767c0 .9-.774 1.66-1.691 1.66H7.314c-.9 0-1.69-.776-1.69-1.66l.04-3.325h-2.76A2.913 2.913 0 010 15.762v-4.915a2.913 2.913 0 012.904-2.91h2.72V1.69c0-.87.803-1.66 1.69-1.66h8.898zm-1.056 1.462H7.314c-.087 0-.225.132-.232.202v6.242h8.037a2.914 2.914 0 012.908 2.911v4.914a2.914 2.914 0 01-2.908 2.911h-8l-.04 3.335c0 .06.121.191.232.191h14.622c.117 0 .232-.114.232-.201V8.276h-2.773c-1.217 0-2.27-.397-3.042-1.143-.78-.757-1.194-1.785-1.194-2.978V1.492zm-.037 7.903H2.904c-.8 0-1.449.652-1.449 1.452v4.914c0 .8.65 1.452 1.45 1.452h12.214c.8 0 1.45-.652 1.45-1.452v-4.914c0-.8-.65-1.452-1.45-1.452zm-9.011 1.987l1.852 2.504v-2.504h.783v3.909h-.716l-1.795-2.373v2.373h-.783v-3.91h.659zm-1.348 0l-.068.645h-1.68v.948h1.344v.669H3.012v.998H4.79v.645H2.12v-3.905H4.76zm7.472 0l-.067.645h-1.681v.948h1.345v.669h-1.345v.998h1.778v.645H9.593v-3.905h2.639zm1.385 0l.776 1.29.71-1.29h.947l-1.28 1.912 1.247 1.993h-.988l-.777-1.324-.702 1.324h-.965l1.294-1.946-1.193-1.96h.93zm3.001-9.348V4.15c0 .79.26 1.456.747 1.93.497.48 1.196.732 2.03.732h2.158l-4.935-4.78z" fill="#5CB615" fill-rule="nonzero"/></svg>
